**kern
*MM76
*k[]
*M2/2
=1
1r
=2
[4G
16G]
16E
16F
16G
8A
8F
8D
8B
=3
8c
8G
8A
8E
8G
16A
16B
4c
=4
[4B
16B]
16c
16d
16e
[4A
8A]
16G
16A
=5
4B
[4c
4c]
4B
=6
4.A
[8d
8d]
8B
[4e
=7
16e]
16e
16d
16c
[4d
8d]
8G
[4cc
=8
16cc]
16cc
16b
16a
4b
4cc
4r
=9
2r
[4G
16G]
16E
16F
16G
=10
8A
8F
8D
8B
4c
4c#
=11
[2d
4d_
16d]
16B
16c
16d
=12
8G#
8e
16a
16A
16B
16c
8F#
8d
16g
16G
16A
16B
=13
8E
8A
8F#
8D
8G
8D
4E
=14
4C
4D
2E
=15
4D
4G
4G
4r
=16
1r
=17
1r
=18
[4G
16G]
16E
16F
16G
8A
8F
8D
8B
=19
8c
8G
[4d
16d]
16f
16e
16d
16c
16e
16d
16c
=20
16B
16d
16e
16f#
16g
16f#
16g
[16a
16a]
16a
16g
16f#
[4e
=21
16e]
16d
16c
16B
8A
8f
8B
8r
4r
=22
1r
=23
1r
=24
1r
=25
2r
8r
[8F
16F]
16E
16F
16G
=26
8A
8F
8D
8B
8c
8G
4A
=27
4D
4r
16r
16c
16B
16A
16G#
16B
16A
16G#
=28
16A
16a
16g
16f
[4e
16e]
16f
16e
16d
16c#
16e
16d
16c#
=29
[4d
16d]
16e
16d
16c
8B
8d
8f#
8A
=30
16G
16A
16B
16c
[4d
8d]
4c
8B
=31
[2c
16c]
16c
16d
16e
[4f
=32
16f]
16g
16f#
16e
[4d
2d_
=33
4d_
16d]
16d
16c
16B
[2c
=34
4c_
16c]
16c
16B
16A
4B
4r
=35
1r
=36
[4A
16A]
16B-
16A
16G
8F
8A
8c#
8E
=37
8D
16E
16F
16G
16B-
16A
16G
8F
8E
8.F
16G
=38
4A
4r
16r
16A
16B
16c
16d
16f
16e
16d
=39
16e
16d
16e
16f
16e
16g
16f
16e
8d
8r
4r
=40
1r
=41
1r
=42
8r
[8g
16g]
16a-
16g
16f
8e
8g
8b-
8d-
=43
8c
16d
16e
2f
8e
8g
=44
16c
16d
16e-
16d
2c
8B
8r
=45
8r
[8c
16c]
16B
16c
16d
8e-
8c
8A-
8f
=46
4g
[4G
4G]
4F
=47
4G
16r
16f
16g
16d
4e-
8r
16r
16g
=48
8.a
16g
4a
16d
16B
16c
16d
[4e
=49
16e]
16c
16d
16e
[4f
8f]
16e
16d
8c
8r
=50
1r
=51
16B
16A
16B
16c
16d
16B
16c
16d
16e
16f
16e
16d
16c
16d
16c
16B-
=52
16A
16c
16d
16e
8f
8d
8B
8g
[4a-
=53
8.a-]
16g
4f
4e
16r
16e
16f
16g
=54
8a
8r
8r
8g#
4e
16r
16c
16d
16e
=55
8g
8r
8r
8e
4c
16r
16A
16B
16c
=56
8d
8r
8r
8c#
4A
4r
=57
2r
[4B
16B]
16A
16B
16c
=58
8d-
8B-
8G
8e
16f
16e
16f
16g
16a-
16f
16g
16a-
=59
8d
8r
8e-
8r
8f
8r
8e-
8r
=60
8r
[8d
16d]
16B
16c
16d
8e
8r
4r
=61
8d
8r
4r
8r
4g
[8f
=62
8f]
8e-
4d
16r
16d
16c
16B
[4c
=63
16c]
16B-
16A
16G
4A
16r
16d
16c
16B
[4c
=64
4c]
4r
4f
4r
=65
4f#
4r
4f
8r
8f
=66
8e
8e
8e
8d
8e
8r
8g
8r
=67
8a
8g
8r
8e
16f
16c
16B-
16A
8B-
8r
=68
8r
[8c
16c]
16B
16c
16d
8e
8c
8A
8f
=69
[2g
16g]
16g
16f
16e
[4f
=70
4f_
16f]
16f
16e
16d
4e
8f
8c
=71
8d
8r
8c
8r
8c
8r
8r
8d
=72
8e
8r
4r
2r
==
*-
